X: 971
T: Hurry the jug
C: anon.
O: Ireland
B: Francis O'Neill: "The Dance Music of Ireland" (1907) no. 971
R: Long dance, set dance
Z: Transcribed by Frank Nordberg - http://www.musicaviva.com
F: http://www.musicaviva.com/abc/tunes/ireland/oneill-1001/oneill-1001-097
1.abc
M: 6/8
L: 1/8
K: Em
D|EFE G2A|BGE FEF|DED F2G|AdB AFD|EFE G2A|BGE FGA|BdB AdF|EGF E2:|
|:A|AFA d2d|^cec d2A|AFA d2A|BAG FED|E2e e2f|g2e f2d|B2e e2f|gfe fdB|
AFA d2d|^cec d2A|AFA d2A|BAG FED|EFE G2A|BGE FGA|BdB AdF|EGF E2:|
W:
W:
W: From Musica Viva - http://www.musicaviva.com
W: the Internet center for free sheet music downloads.


